Static/without-Software.svg

<svg width="48" height="49" viewBox="0 0 48 49" fill="none" xmlns="http://www.w3.org/2000/svg">
<g clip-path="url(#clip0_652_6780)">
<path d="M45.984 34.868H2.016C0.96 34.868 0 34.004 0 32.852V6.83601C0 5.78001 0.864 4.82001 2.016 4.82001H46.08C47.136 4.82001 48.096 5.68401 48.096 6.83601V32.852C48 34.004 47.136 34.868 45.984 34.868Z" fill="#5F737C"/>
<path d="M45.984 33.524H2.016C0.96 33.524 0 32.66 0 31.508V5.58799C0 4.53199 0.864 3.57199 2.016 3.57199H46.08C47.136 3.57199 48.096 4.43599 48.096 5.58799V31.604C48 32.66 47.136 33.524 45.984 33.524Z" fill="#839299"/>
<path d="M44.256 31.508H3.74397C2.68797 31.508 1.82397 30.644 1.82397 29.588V7.12401C1.82397 6.06801 2.68797 5.20401 3.74397 5.20401H44.16C45.216 5.20401 46.08 6.06801 46.08 7.12401V29.492C46.176 30.644 45.312 31.508 44.256 31.508Z" fill="#245C5C"/>
<path d="M45.504 5.20401H2.49597C2.11197 5.20401 1.82397 5.49201 1.82397 5.87601V7.22001C1.82397 6.83601 2.11197 6.54801 2.49597 6.54801H45.504C45.888 6.54801 46.176 6.83601 46.176 7.22001V5.87601C46.176 5.49201 45.888 5.20401 45.504 5.20401Z" fill="#153350"/>
<path d="M30.912 42.164H17.088L17.376 41.684C18.624 39.572 19.296 37.268 19.392 34.868H28.704C28.8 37.268 29.472 39.572 30.72 41.684L30.912 42.164Z" fill="#5F737C"/>
<path d="M35.8085 45.4281H12.1925C11.3285 45.4281 10.5605 44.6601 10.5605 43.7961C10.5605 42.9321 11.3285 42.1641 12.1925 42.1641H35.9045C36.7685 42.1641 37.5365 42.9321 37.5365 43.7961C37.4405 44.6601 36.7685 45.4281 35.8085 45.4281Z" fill="#839299"/>
<path d="M35.8085 43.7961H12.1925C11.6165 43.7961 11.0405 43.5081 10.7525 43.0281C10.6565 43.2201 10.5605 43.5081 10.5605 43.7961C10.5605 44.6601 11.3285 45.4281 12.1925 45.4281H35.9045C36.7685 45.4281 37.5365 44.6601 37.5365 43.7961C37.5365 43.5081 37.4405 43.2201 37.3445 43.0281C36.9605 43.5081 36.4805 43.7961 35.8085 43.7961Z" fill="#5F737C"/>
<path d="M17.376 41.684L17.088 42.164H30.912L30.624 41.684C29.952 40.628 29.472 39.38 29.184 38.228H18.816C18.528 39.38 17.952 40.628 17.376 41.684Z" fill="#D2D9DC"/>
<g opacity="0.19">
<path d="M24 30.26C29.5671 30.26 34.08 25.747 34.08 20.18C34.08 14.613 29.5671 10.1 24 10.1C18.433 10.1 13.92 14.613 13.92 20.18C13.92 25.747 18.433 30.26 24 30.26Z" fill="#2D2F31"/>
</g>
<path d="M33.9305 20.18C34.8224 14.6847 31.0906 9.50702 25.5954 8.61518C20.1002 7.72334 14.9224 11.4551 14.0306 16.9503C13.1387 22.4455 16.8705 27.6233 22.3657 28.5151C27.861 29.407 33.0387 25.6752 33.9305 20.18Z" fill="white"/>
<path d="M26.6881 19.604L29.0881 17.204C29.8561 16.436 29.8561 15.284 29.0881 14.516C28.3201 13.748 27.1681 13.748 26.4001 14.516L24.0001 16.916L21.6001 14.516C20.8321 13.748 19.6801 13.748 18.9121 14.516C18.1441 15.284 18.1441 16.436 18.9121 17.204L21.3121 19.604L18.9121 22.004C18.1441 22.772 18.1441 23.924 18.9121 24.692C19.6801 25.46 20.8321 25.46 21.6001 24.692L24.0001 22.292L26.4001 24.692C27.1681 25.46 28.3201 25.46 29.0881 24.692C29.8561 23.924 29.8561 22.772 29.0881 22.004L26.6881 19.604Z" fill="#E6E7E8"/>
<path d="M26.6881 18.548L29.0881 16.148C29.8561 15.38 29.8561 14.228 29.0881 13.46C28.3201 12.692 27.1681 12.692 26.4001 13.46L24.0001 15.86L21.6001 13.46C20.8321 12.692 19.6801 12.692 18.9121 13.46C18.1441 14.228 18.1441 15.38 18.9121 16.148L21.3121 18.548L18.9121 20.948C18.1441 21.716 18.1441 22.868 18.9121 23.636C19.6801 24.404 20.8321 24.404 21.6001 23.636L24.0001 21.236L26.4001 23.636C27.1681 24.404 28.3201 24.404 29.0881 23.636C29.8561 22.868 29.8561 21.716 29.0881 20.948L26.6881 18.548Z" fill="#ED1C24"/>
<path opacity="0.19" d="M21.312 18.548L21.504 18.356C21.792 18.068 21.792 17.588 21.504 17.396L18.912 14.804C18.72 14.612 18.528 14.42 18.528 14.132C18.24 14.804 18.432 15.572 18.912 16.148L21.312 18.548Z" fill="#2D2F31"/>
<path opacity="0.19" d="M29.088 22.292C28.32 23.06 27.168 23.06 26.4 22.292L24 19.892L21.6 22.292C20.832 23.06 19.68 23.06 18.912 22.292C18.72 22.1 18.528 21.908 18.528 21.62C18.24 22.292 18.432 23.06 18.912 23.636C19.68 24.404 20.832 24.404 21.6 23.636L24 21.236L26.4 23.636C27.168 24.404 28.32 24.404 29.088 23.636C29.664 23.06 29.76 22.292 29.472 21.62C29.472 21.908 29.28 22.1 29.088 22.292Z" fill="#2D2F31"/>
<path opacity="0.19" d="M29.0874 14.708L26.4954 17.3C26.2074 17.588 26.2074 18.068 26.4954 18.26L26.6874 18.452L29.0874 16.052C29.6634 15.476 29.7594 14.708 29.4714 14.036C29.4714 14.324 29.2794 14.516 29.0874 14.708Z" fill="#2D2F31"/>
</g>
<defs>
<clipPath id="clip0_652_6780">
<rect width="48" height="48" fill="white" transform="translate(0 0.5)"/>
</clipPath>
</defs>
</svg>

<svg xmlns="http://www.w3.org/2000/svg" width="48" height="49" fill="none"><g clip-path="url(#a)"><path fill="#5F737C" d="M45.984 34.868H2.016C.96 34.868 0 34.004 0 32.852V6.836C0 5.78.864 4.82 2.016 4.82H46.08c1.056 0 2.016.864 2.016 2.016v26.016c-.096 1.152-.96 2.016-2.112 2.016Z"/><path fill="#839299" d="M45.984 33.524H2.016C.96 33.524 0 32.66 0 31.508V5.588c0-1.056.864-2.016 2.016-2.016H46.08c1.056 0 2.016.864 2.016 2.016v26.016a2.1 2.1 0 0 1-2.112 1.92Z"/><path fill="#245C5C" d="M44.256 31.508H3.744a1.926 1.926 0 0 1-1.92-1.92V7.124c0-1.056.864-1.92 1.92-1.92H44.16c1.056 0 1.92.864 1.92 1.92v22.368c.096 1.152-.768 2.016-1.824 2.016Z"/><path fill="#153350" d="M45.504 5.204H2.496a.656.656 0 0 0-.672.672V7.22c0-.384.288-.672.672-.672h43.008c.384 0 .672.288.672.672V5.876a.656.656 0 0 0-.672-.672Z"/><path fill="#5F737C" d="M30.912 42.164H17.088l.288-.48a14.417 14.417 0 0 0 2.016-6.816h9.312c.096 2.4.768 4.704 2.016 6.816l.192.48Z"/><path fill="#839299" d="M35.809 45.428H12.193c-.864 0-1.633-.768-1.633-1.632 0-.864.768-1.632 1.633-1.632h23.711c.864 0 1.632.768 1.632 1.632-.096.864-.767 1.632-1.727 1.632Z"/><path fill="#5F737C" d="M35.809 43.796H12.193c-.576 0-1.152-.288-1.44-.768-.097.192-.193.48-.193.768 0 .864.768 1.632 1.633 1.632h23.711c.864 0 1.632-.768 1.632-1.632 0-.288-.096-.576-.192-.768-.383.48-.864.768-1.535.768Z"/><path fill="#D2D9DC" d="m17.376 41.684-.288.48h13.824l-.288-.48c-.672-1.056-1.152-2.304-1.44-3.456H18.816c-.288 1.152-.864 2.4-1.44 3.456Z"/><path fill="#2D2F31" d="M24 30.26c5.567 0 10.08-4.513 10.08-10.08S29.567 10.1 24 10.1s-10.08 4.513-10.08 10.08S18.433 30.26 24 30.26Z" opacity=".19"/><path fill="#fff" d="M33.93 20.18c.892-5.495-2.84-10.673-8.335-11.565-5.495-.892-10.673 2.84-11.564 8.335-.892 5.495 2.84 10.673 8.335 11.565 5.495.892 10.673-2.84 11.565-8.335Z"/><path fill="#E6E7E8" d="m26.688 19.604 2.4-2.4c.768-.768.768-1.92 0-2.688-.768-.768-1.92-.768-2.688 0l-2.4 2.4-2.4-2.4c-.768-.768-1.92-.768-2.688 0-.768.768-.768 1.92 0 2.688l2.4 2.4-2.4 2.4c-.768.768-.768 1.92 0 2.688.768.768 1.92.768 2.688 0l2.4-2.4 2.4 2.4c.768.768 1.92.768 2.688 0 .768-.768.768-1.92 0-2.688l-2.4-2.4Z"/><path fill="#ED1C24" d="m26.688 18.548 2.4-2.4c.768-.768.768-1.92 0-2.688-.768-.768-1.92-.768-2.688 0l-2.4 2.4-2.4-2.4c-.768-.768-1.92-.768-2.688 0-.768.768-.768 1.92 0 2.688l2.4 2.4-2.4 2.4c-.768.768-.768 1.92 0 2.688.768.768 1.92.768 2.688 0l2.4-2.4 2.4 2.4c.768.768 1.92.768 2.688 0 .768-.768.768-1.92 0-2.688l-2.4-2.4Z"/><path fill="#2D2F31" d="m21.312 18.548.192-.192c.288-.288.288-.768 0-.96l-2.592-2.592c-.192-.192-.384-.384-.384-.672-.288.672-.096 1.44.384 2.016l2.4 2.4ZM29.088 22.292c-.768.768-1.92.768-2.688 0l-2.4-2.4-2.4 2.4c-.768.768-1.92.768-2.688 0-.192-.192-.384-.384-.384-.672-.288.672-.096 1.44.384 2.016.768.768 1.92.768 2.688 0l2.4-2.4 2.4 2.4c.768.768 1.92.768 2.688 0 .576-.576.672-1.344.384-2.016 0 .288-.192.48-.384.672ZM29.087 14.708 26.495 17.3c-.288.288-.288.768 0 .96l.192.192 2.4-2.4c.576-.576.672-1.344.384-2.016 0 .288-.192.48-.384.672Z" opacity=".19"/></g><defs><clipPath id="a"><path fill="#fff" d="M0 .5h48v48H0z"/></clipPath></defs></svg>
